X:1
T:Gigha - Corelli. SenH.010
T:Gigha - Corelli. SenH.010
T:in Hand A
C:in Hand A
L:1/8
Q:1/4=100
M:6/8
K:G
V:1 treble 
V:1
 d | B2 G d2 g | f3 g2 d | e2 e dec | B3 d2 g | e2 g c'2 a | f3 d'2 d | (efg) (dgf) | g3 (bdb) | %9
 (ada) g3 | f3 (eGe) | (dGd) c3 | B3 (afa) | (bgb) (^c'ac') | d'3 a2 A | (G^cd) A2 c | d3 g2 d | %17
 e2 e dec | B3 d'2 g | c'2 b abg | f3 (dBd) | (ece) (fdf) | (geg) (afa) | (bgb) (c'ac') | %24
 d'3- d'c'b | aba (dgf) | g3- g2 =f | (edc) (edc) | d3- d2 c | (BAG) d2 f | g3 z2 e | d3- d2 c | %32
 (BAG) d2 f | g3 g2 || d | g2 d G2 g | a2 d' f2 a | b2 d (Gdb) | a2 d z2 a | b2 d (gab) | %40
 (^cba) (def) | (G^cd) A2 c | d3 z2 d | (gag) (gag) | e2 g c2 e | (gag) (gag) | f2 a d2 a | %47
 d'2 g c'2 f | b2 e (abc') | (bag) Be^d | e3 z2 e | a2 e ^c2 a | f2 a d2 a | d'2 a g2 d' | %54
 b2 d G2 b | a2 d' f2 a | g2 c' e2 g | f2 d (gab) | (efg) (dfg) | g3 b2 e' | fe'd' (e'd'c') | %61
 d2 b c2 a | (Bag) (dgf) | g3 b2 e' | fe'd' e'd'c' | (dfb) (cea) | (Bag) (dgf) | g3- g2 |] %68

